!!!COM:	Bach, Johann Sebastian
!!!CDT:	1685/02/21/-1750/07/28/
!!!OTL@@DE:	Warum sollt ich mich denn gr&auml;men
!!!SCT:	BWV 248/33
!!!PC#:	139
!!!AGN:	chorale
**kern	**kern	**kern	**kern
*ICvox	*ICvox	*ICvox	*ICvox
*Ibass	*Itenor	*Ialto	*Isoprn
*I"Bass	*I"Tenor	*I"Alto	*I"Soprano
*clefF4	*clefGv2	*clefG2	*clefG2
*k[f#]	*k[f#]	*k[f#]	*k[f#]
*G:	*G:	*G:	*G:
*M4/4	*M4/4	*M4/4	*M4/4
*met(c)	*met(c)	*met(c)	*met(c)
*MM100	*MM100	*MM100	*MM100
=1-	=1-	=1-	=1-
4G	4B	4d	4g
4C	4c	4e	4g
4c	4F#	4d	4a
4B	4G	4d	4g
=2	=2	=2	=2
4A	4c	4e	8aL
.	.	.	8bJ
4A-	8cL	4f	4cc
.	8dJ	.	.
2G	4e	2g	4cc
.	4d	.	4b
=3	=3	=3	=3
2C;	2e;	2g;	2cc;
4G	8gL	8bL	4dd
.	8fJ	8aJ	.
4G#	4e	4b	4ee
=4	=4	=4	=4
2A;	2e;	2a;	2cc;
4E	4e	4gnX	8bL
.	.	.	8ccJ
8BBL	4d	4g	4dd
8CJ	.	.	.
=5	=5	=5	=5
2D;	2d;	2f#;	2a;
4D	4A	4f#	4dd
8GL	4B	4g	4dd
8F#J	.	.	.
=6	=6	=6	=6
4E	4c	4g	4cc
4D	4d	4g	8bL
.	.	.	8aJ
4C	4e	4g	2a
4D	8dL	4f#	.
.	8cJ	.	.
=7	=7	=7	=7
2GG;	2B;	2d;	2g;
8CL	4c	4e	4g
8DJ	.	.	.
4E	4G	8BL	4g
.	.	8c#J	.
=8	=8	=8	=8
8DL	4F#	8dL	4a
8EJ	.	8cnXJ	.
4F	4G	4B	4g
8EL	8GL	8cL	8aL
8DJ	8FJ	8dJ	8bJ
8EL	8GL	8cL	4cc
8F#J	8AJ	8dJ	.
=9	=9	=9	=9
4G	4G	4e	4cc
4G#	4e	4d	4b
2A;	2e;	2c;	2cc;
=10	=10	=10	=10
4B	8dL	4f#	4dd
.	8cJ	.	.
4E	4B	4g#	4ee
2A;	2A;	2e;	2cc;
=11	=11	=11	=11
4E	8GL	4gnX	8bL
.	8AJ	.	8ccJ
8DL	8BL	8f#L	4dd
8EJ	8GJ	8gJ	.
2F#;	2d;	2a;	2a;
=12	=12	=12	=12
8GL	8BL	4g	4dd
8AJ	8cJ	.	.
4B	4d	8gL	4dd
.	.	8f#J	.
8BL	8eL	8gL	4cc
8AJ	8f#J	8aJ	.
8BL	4g	8dL	8bL
8cJ	.	8eJ	8aJ
=13	=13	=13	=13
4d	8dL	8f#	2a
.	16cL	4g	.
.	16BJJ	.	.
4D	4c	.	.
.	.	8f#	.
2G;	2B;	2d;	2g;
==	==	==	==
*-	*-	*-	*-
!!!hum2abc: -Q ''
!!!title: @{PC#}. @{OTL@@DE}
!!!YOR1: 371 vierstimmige Choralges&auml;nge von Johann Sebastian Bach, 
!!!YOR2: 4th ed. by Alfred D&ouml;rffel (Leipzig: Breitkopf und H&auml;rtel, 
!!!YOR2: c.1875). 178 pp. Plate "V.A.10".  reprint: J.S. Bach, 371 Four-Part 
!!!YOR4: Chorales (New York: Associated Music Publishers, Inc., c.1940).
!!!SMS: B&H, 4th ed, Alfred D&ouml;rffel, c.1875, plate V.A.10
!!!EED:  Craig Stuart Sapp
!!!EEV:  2009/05/22
